X:1
T:Take Me Out To The Ball Game
T:Words by JACK NORWORTH
T:Music by ALBERT VON TILZER
%%score 1 { ( 2 4 ) | ( 3 5 ) }
L:1/8
Q:1/4=200
M:3/4
K:D
V:1 treble nm="Voice"
V:2 treble nm="Piano"
V:4 treble 
V:3 bass 
V:5 bass 
V:1
"^Tempo di Valse" z2 | z6 | z6 | z6 | z6 | z6 | z6 | z6 | z6 |: z6 | z6 ::!mf! A4 A2 | A2 G2 F2 | %13
w: |||||||||||Ka- tie|Ca- sey was|
w: |||||||||||Ka- tie|Ca- sey saw|
 A4 A2 | A6 | B4 B2 | B2 A2 G2 | B4 B2 | B6 | c4 c2 | c2 d2 e2 | B4 B2 | B2 c2 e2 | B6- | %24
w: base- ball|mad,|Had the|fev- er and|had it|bad;|Just to|root for the|home- town|crew, ev- ’ry|sou|
w: all the|games,|Knew the|play- ers by|their first|names;|Told the|um- pi- re|he was|wrong, all a-|long|
 B2 c2 e2 | A6- | A4 z2 | A4 A2 | A2 G2 F2 | A4 A2 | A6 | B4 B2 | B2 A2 G2 | B4 B2 | B4 A2 | %35
w: _ Ka- tie|blew.|_|On a|Sat- ur- day,|her young|beau|called to|see if she’d|like to|go, To|
w: _ good and|strong.|_|When the|score was just|two to|two,|Ka- tie|Ca- sey knew|what to|do, *|
 ^G4 G2 | ^G2 A2 B2 | c4 A2 | E4 E2 | F2 ^G2 A2 | B4 c2 | A6- | A4 z2 ||"^CHORUS" !>!D4 d2 | %44
w: see a|show but Miss|Kate said,|“No, I’ll|tell you what|you can|do:”|_|Take me|
w: Just to|cheer up the|boys she|knew, She|made the gang|sing this|song:|_||
 B2 A2 F2 | A6 | E6 | !>!D4 d2 | B2 A2 F2 | A6- | A4 z2 | B2 ^A2 B2 | F2 G2 A2 | B4 G2 | E6 | %55
w: out to the|ball|game,|Take me|out with the|crowd.|_|Buy me some|pea- nuts and|crack- er|jack,|
w: |||||||||||
 B4 B2 | B2 c2 d2 | e2 c2 B2 | A2 F2 E2 | !>!D4 d2 | B2 A2 F2 | A6 | E4 E2 | D4 E2 | F2 G2 A2 | %65
w: I don’t|care if I|nev- er get|back, Let me|root, root,|root for the|home|team, If|they don’t|win it’s a|
w: ||||||||||
 B6- | B2 B2 c2 | d6 | d6 | d2 c2 B2 | A2 ^G2 A2 | B6 | c6 |1 d6- | d2 z2 z2 :|2 d6- | d2 z2 |] %77
w: shame,|_ For it’s|one,|two,|three strikes you’re|out, at the|old|ball|game.|_|game.|_|
w: ||||||||||||
V:2
!f! Bd | !>!d6 | !>!d6 | !>![D^Fd]2 !>![CFc]2 !>![B,DB]2 | !>![A,DA]2 !>![^G,D^G]2 !>![A,DA]2 | %5
 [B,B]6 | [B,B]6 | ((([D-d]6 | [Dd]2))) z2 z2 |:"^Till Ready"!p!{A,B,C} D2 [A,DF]2 [A,DF]2 | %10
 z2 [A,DF]2 [A,DF]2 ::!mf! A4 A2 | A2 G2 F2 | A4 A2 | A6 | B4 B2 | B2 A2 G2 | B4 B2 | B6 | %19
 [Gc]4 [Gc]2 | c2 d2 e2 | [GB]4 [GB]2 | B2 c2 e2 | B6- | B2 c2 e2 | [FA]6- | [FA]4 z2 | A4 A2 | %28
 A2 G2 F2 | A4 A2 | A6 | B4 B2 | B2 A2 G2 | B4 B2 | B4 A2 | ^G4 G2 | ^G2 A2 B2 | c4 A2 | E4 E2 | %39
 F2 ^G2 A2 | B4 c2 | [CA]2 !>!A,2 !>!^A,2 | !>!B,2 !>!=C2 !>!^C2 ||{A,B,C} !>!D4 d2 | B2 A2 F2 | %45
 A6 | E6 |{A,B,C} !>!D4 d2 | B2 A2 F2 | [GA]6- | ([GA]4 [EG^A]2) | B2 ^A2 B2 | F2 G2 A2 | B4 G2 | %54
 E6 | B4 B2 | B2 c2 e2 | e2 c2 B2 | A2 !>!F2 !>!E2 |{A,B,C} !>!D4 d2 | B2 A2 F2 | A6 | E4 E2 | %63
 D4 E2 | F2 G2 A2 | B6- | B2 B2 c2 | !>!d6 | !>!d6 | !>![D^Fd]2 !>![CFc]2 !>![B,DB]2 | %70
 !>![A,DA]2 !>![^G,D^G]2 !>![A,DA]2 | [B,B]6 | [Cc]6 |1 [FAd]2 !>!c2 !>!B2 | !>!A2 !>!F2 !>!E2 :|2 %75
 (([FAd]6 | [dfd']2)) z2 |] %77
V:3
 z2 | !>![B,,B,]6 | !>![_B,,_B,]6 | !>![A,,A,]4 !>![G,,G,]2 | %4
 !>![F,,F,]2 !>![^E,,^E,]2 !>![F,,F,]2 | [=E,,=E,]6 | [A,,A,]6 | D,6- | D,2 z4 |: [D,,D,]2 z2 z2 | %10
 [D,,D,]2 z2 z2 :: [D,,D,]4 [C,,C,]2 | [B,,,B,,]4 [A,,,A,,]2 | [D,,D,]4 [C,,C,]2 | %14
 [B,,,B,,]4 [A,,,A,,]2 | [G,,G,]4 [F,,F,]2 | [E,,E,]4 [D,,D,]2 | [G,,G,]4 [F,,F,]2 | %18
 [E,,E,]4 [D,,D,]2 | [E,,E,]2 [G,A,]2 [G,A,]2 | A,,2 [G,A,C]2 [G,A,C]2 | z2 E2 D2 | C2- [CE]2 A,2 | %23
 E,2 [A,C]2 [A,C]2 | A,,2 [G,A,C]2 [G,A,C]2 | D,2 [F,A,]2 [F,A,]2 | D,2 (B,,2 A,,2) | %27
 [D,,D,]4 [C,,C,]2 | [B,,,B,,]4 [A,,,A,,]2 | [D,,D,]4 [C,,C,]2 | [B,,,C,]4 [A,,,A,,]2 | %31
 [G,,G,]4 [F,,F,]2 | [E,,E,]4 [D,,D,]2 | [G,,G,]4 [F,,F,]2 | [E,,E,]4 z2 | [B,,,B,,]2 E,2 E,,2- | %36
 [E,,E,]2 F,2 ^G,2 | A,4 E,2 | [C,,C,]2 [E,A,C]2 [E,A,C]2 | [B,,,B,,]2 [F,A,B,]2 [F,A,B,]2 | %40
 [E,,E,]2 [E,^G,]2 [E,G,]2 | [A,,A,]2 !>!A,,2 !>!^A,,2 | !>!B,,2 !>!=C,2 !>!^C,2 || %43
{A,,B,,C,} !>!D,2 [F,A,]2 [F,A,]2 | [A,,,A,,]2 [F,A,D]2 [F,A,D]2 | [E,,E,]2 [G,A,]2 [G,A,]2 | %46
 A,,2 G,2 A,,2 |{A,,B,,C,} !>!D,2 [F,A,]2 [F,A,]2 | [A,,,A,,]2 [F,A,D]2 [F,A,D]2 | %49
 [E,,E,]2 [CE]2 [CE]2 | [A,,A,]2 [A,C]2 [=C,=C]2 | [B,,B,]2 F,2 [B,,A,]2 | %52
 [B,,B,]2 [F,A,B,]2 [F,A,B,]2 | [E,,E,]2 [G,B,]2 [G,B,]2 | [B,,,B,,]2 [G,B,]2 [G,B,]2 | %55
 [^G,,^G,]2 [E,G,D]2 [E,G,D]2 | [E,,E,]2 [E,^G,E]2 [E,G,D]2 | [A,,A,]2 [A,C]2 [A,D]2 | %58
 [A,C]2 !>!F,2 !>!E,2 |{A,,B,,C,} !>!D,2 [F,A,]2 [F,A,]2 | [A,,,A,,]2 [F,A,D]2 [F,A,D]2 | %61
 [E,,E,]2 [G,A,]2 [G,A,]2 | A,,2 G,2 A,,2 | [D,,D,]2 [F,A,]2 [F,A,]2 | [D,,D,]2 [E,,E,]2 [F,,F,]2 | %65
 [G,,G,]2 [G,B,]2 [G,B,]2 | [G,,G,]2 [G,B,D]2 [G,B,D]2 | !>![B,,B,]6 | !>![_B,,_B,]6 | %69
 !>![A,,A,]4 !>![G,,G,]2 | !>![F,,F,]2 !>![^E,,^E,]2 !>![F,,F,]2 | [E,,=E,]6 | [A,,A,]6 |1 %73
 [D,D]2 !>![C,C]2 !>![B,,B,]2 | !>![A,,A,]2 !>![F,,F,]2 !>![E,,E,]2 :|2 [D,D]2 [A,,A,]2 [F,,F,]2 | %76
 !>![D,,D,]2 z2 |] %77
V:4
 x2 | z2 [EG]2 [EG]2 | z2 [=F^G]2 [FG]2 | x6 | x6 | z2 [D^G]2 [DG]2 | z2 [=GA]2 [GA]2 | %7
 z2 [FA]2 [FA]2 | [FA]2 x4 |: x6 | x6 :: z2 [A,F]2 [A,E]2 | z2 [G,D]2 [G,D]2 | z2 [A,F]2 [A,E]2 | %14
 z2 [A,D]2 [DF]2 | z2 [B,E]2 [A,^D]2 | z2 [B,E]2 [B,E]2 | z2 [B,E]2 [B,^D]2 | z2 [B,G]2 [B,G]2 | %19
 x6 | G6 | x6 | G6 | z2 G2 F2 | E6 | (D2 C2 B,2 | A,2) (B,2 A,2) | z2 [A,F]2 [A,E]2 | %28
 z2 [G,D]2 [A,D]2 | z2 [A,F]2 [A,E]2 | z2 [A,D]2 [DF]2 | z2 [B,E]2 [A,^D]2 | z2 [B,E]2 [B,E]2 | %33
 z2 [B,E]2 [B,^D]2 | z2 [B,E]2 z2 | z2 [DE]2 [DE]2 | E2 ^D2 [=DE]2 | z2 [CE]2 [CE]2 | x6 | ^D6 | %40
 =D4 E2 | x6 | x6 || x6 | x6 | z2 E2 D2 | C2 B,2 A,2 | x6 | x6 | x6 | x6 | ^D6- | D6 | E6 | x6 | %55
 ^G6- | (G6 | =G2) [EG]2 [EG]2 | [EG]2 z2 z2 | x6 | x6 | z2 E2 D2 | C2 B,2 A,2 | x6 | %64
 D2 C2 [=CD]2 | z2 [DG]2 [DG]2 | [DG]2 z2 z2 | z2 [EG]2 [EG]2 | z2 [=F^G]2 [FG]2 | x6 | x6 | %71
 z2 [D^G]2 [DG]2 | z2 [=GA]2 [GA]2 |1 x6 | x6 :|2 x6 | x4 |] %77
V:5
 x2 | x6 | x6 | x6 | x6 | x6 | x6 | D,,2 A,,2 F,,2 | D,,2 x4 |: x6 | x6 :: x6 | x6 | x6 | x6 | x6 | %16
 x6 | x6 | x6 | x6 | x6 | E,6 | x6 | x6 | x6 | x6 | x6 | x6 | x6 | x6 | x6 | x6 | x6 | x6 | x6 | %35
 x6 | x6 | x6 | x6 | x6 | x6 | x6 | x6 || x6 | x6 | x6 | x6 | x6 | x6 | x6 | x6 | x6 | x6 | x6 | %54
 x6 | x6 | x6 | x6 | x6 | x6 | x6 | x6 | x6 | x6 | x6 | x6 | x6 | x6 | x6 | x6 | x6 | x6 | x6 |1 %73
 x6 | x6 :|2 x6 | x4 |] %77

